48x48/apps/kcmprocessor.svg

<svg xmlns="http://www.w3.org/2000/svg" width="48" height="48"><rect style="opacity:.2" width="40" height="40" x="4" y="5" rx="2" ry="2"/><rect style="fill:#419d45" width="40" height="40" x="4" y="4" rx="2" ry="2"/><rect style="opacity:.2" width="16" height="16" x="16" y="17" rx="4" ry="4"/><rect style="fill:#37474f" width="16" height="16" x="16" y="16" rx="4" ry="4"/><g style="opacity:.2" transform="translate(0 1)"><circle cx="11.5" cy="11.5" r="1.5"/><circle cx="16.5" cy="11.5" r="1.5"/><circle cx="21.5" cy="11.5" r="1.5"/><circle cx="11.5" cy="16.5" r="1.5"/><circle cx="11.5" cy="21.5" r="1.5"/><circle cx="26.5" cy="11.5" r="1.5"/><circle cx="31.5" cy="11.5" r="1.5"/><circle cx="36.5" cy="11.5" r="1.5"/><circle cx="36.5" cy="16.5" r="1.5"/><circle cx="36.5" cy="21.5" r="1.5"/><circle cx="36.5" cy="26.5" r="1.5"/><circle cx="36.5" cy="36.5" r="1.5"/><circle cx="31.5" cy="36.5" r="1.5"/><circle cx="26.5" cy="36.5" r="1.5"/><circle cx="26.5" cy="40.5" r="1.5"/><circle cx="21.5" cy="36.5" r="1.5"/><circle cx="16.5" cy="36.5" r="1.5"/><circle cx="11.5" cy="31.5" r="1.5"/><circle cx="11.5" cy="36.5" r="1.5"/><circle cx="11.5" cy="26.5" r="1.5"/><circle cx="36.5" cy="31.5" r="1.5"/><circle cx="40.5" cy="11.5" r="1.5"/><circle cx="40.5" cy="16.5" r="1.5"/><circle cx="40.5" cy="21.5" r="1.5"/><circle cx="40.5" cy="26.5" r="1.5"/><circle cx="40.5" cy="31.5" r="1.5"/><circle cx="40.5" cy="36.5" r="1.5"/><circle cx="40.5" cy="40.5" r="1.5"/><circle cx="36.5" cy="40.5" r="1.5"/><circle cx="31.5" cy="40.5" r="1.5"/><circle cx="21.5" cy="40.5" r="1.5"/><circle cx="16.5" cy="40.5" r="1.5"/><circle cx="7.5" cy="40.5" r="1.5"/><circle cx="7.5" cy="36.5" r="1.5"/><circle cx="7.5" cy="31.5" r="1.5"/><circle cx="7.5" cy="26.5" r="1.5"/><circle cx="7.5" cy="21.5" r="1.5"/><circle cx="7.5" cy="16.5" r="1.5"/><circle cx="7.5" cy="11.5" r="1.5"/><circle cx="16.5" cy="7.5" r="1.5"/><circle cx="21.5" cy="7.5" r="1.5"/><circle cx="26.5" cy="7.5" r="1.5"/><circle cx="31.5" cy="7.5" r="1.5"/><circle cx="36.5" cy="7.5" r="1.5"/><circle cx="40.5" cy="7.5" r="1.5"/></g><g style="fill:#ffdc65"><circle cx="11.5" cy="11.5" r="1.5"/><circle cx="16.5" cy="11.5" r="1.5"/><circle cx="21.5" cy="11.5" r="1.5"/><circle cx="11.5" cy="16.5" r="1.5"/><circle cx="11.5" cy="21.5" r="1.5"/><circle cx="26.5" cy="11.5" r="1.5"/><circle cx="31.5" cy="11.5" r="1.5"/><circle cx="36.5" cy="11.5" r="1.5"/><circle cx="36.5" cy="16.5" r="1.5"/><circle cx="36.5" cy="21.5" r="1.5"/><circle cx="36.5" cy="26.5" r="1.5"/><circle cx="36.5" cy="36.5" r="1.5"/><circle cx="31.5" cy="36.5" r="1.5"/><circle cx="26.5" cy="36.5" r="1.5"/><circle cx="26.5" cy="40.5" r="1.5"/><circle cx="21.5" cy="36.5" r="1.5"/><circle cx="16.5" cy="36.5" r="1.5"/><circle cx="11.5" cy="31.5" r="1.5"/><circle cx="11.5" cy="36.5" r="1.5"/><circle cx="11.5" cy="26.5" r="1.5"/><circle cx="36.5" cy="31.5" r="1.5"/><circle cx="40.5" cy="11.5" r="1.5"/><circle cx="40.5" cy="16.5" r="1.5"/><circle cx="40.5" cy="21.5" r="1.5"/><circle cx="40.5" cy="26.5" r="1.5"/><circle cx="40.5" cy="31.5" r="1.5"/><circle cx="40.5" cy="36.5" r="1.5"/><circle cx="40.5" cy="40.5" r="1.5"/><circle cx="36.5" cy="40.5" r="1.5"/><circle cx="31.5" cy="40.5" r="1.5"/><circle cx="21.5" cy="40.5" r="1.5"/><circle cx="16.5" cy="40.5" r="1.5"/><circle cx="7.5" cy="40.5" r="1.5"/><circle cx="7.5" cy="36.5" r="1.5"/><circle cx="7.5" cy="31.5" r="1.5"/><circle cx="7.5" cy="26.5" r="1.5"/><circle cx="7.5" cy="21.5" r="1.5"/><circle cx="7.5" cy="16.5" r="1.5"/><circle cx="7.5" cy="11.5" r="1.5"/><circle cx="16.5" cy="7.5" r="1.5"/><circle cx="21.5" cy="7.5" r="1.5"/><circle cx="26.5" cy="7.5" r="1.5"/><circle cx="31.5" cy="7.5" r="1.5"/><circle cx="36.5" cy="7.5" r="1.5"/><circle cx="40.5" cy="7.5" r="1.5"/></g><path style="opacity:.1;fill:#f4f4f7" d="M20 16c-2.216 0-4 1.784-4 4v1c0-2.216 1.784-4 4-4h8c2.216 0 4 1.784 4 4v-1c0-2.216-1.784-4-4-4h-8zM6 4c-1.108 0-2 .892-2 2v1c0-1.108.892-2 2-2h36c1.108 0 2 .892 2 2V6c0-1.108-.892-2-2-2H6z"/></svg>

<svg xmlns="http://www.w3.org/2000/svg" width="48" height="48" version="1.1">
 <rect style="opacity:0.2" width="40" height="40" x="4" y="5" rx="2" ry="2"/>
 <rect style="fill:#419d45" width="40" height="40" x="4" y="4" rx="2" ry="2"/>
 <rect style="opacity:0.2" width="16" height="16" x="16" y="17" rx="4" ry="4"/>
 <rect style="fill:#37474f" width="16" height="16" x="16" y="16" rx="4" ry="4"/>
 <g style="opacity:0.2" transform="translate(0,1)">
  <circle cx="11.5" cy="11.5" r="1.5"/>
  <circle cx="16.5" cy="11.5" r="1.5"/>
  <circle cx="21.5" cy="11.5" r="1.5"/>
  <circle cx="11.5" cy="16.5" r="1.5"/>
  <circle cx="11.5" cy="21.5" r="1.5"/>
  <circle cx="26.5" cy="11.5" r="1.5"/>
  <circle cx="31.5" cy="11.5" r="1.5"/>
  <circle cx="36.5" cy="11.5" r="1.5"/>
  <circle cx="36.5" cy="16.5" r="1.5"/>
  <circle cx="36.5" cy="21.5" r="1.5"/>
  <circle cx="36.5" cy="26.5" r="1.5"/>
  <circle cx="36.5" cy="36.5" r="1.5"/>
  <circle cx="31.5" cy="36.5" r="1.5"/>
  <circle cx="26.5" cy="36.5" r="1.5"/>
  <circle cx="26.5" cy="40.5" r="1.5"/>
  <circle cx="21.5" cy="36.5" r="1.5"/>
  <circle cx="16.5" cy="36.5" r="1.5"/>
  <circle cx="11.5" cy="31.5" r="1.5"/>
  <circle cx="11.5" cy="36.5" r="1.5"/>
  <circle cx="11.5" cy="26.5" r="1.5"/>
  <circle cx="36.5" cy="31.5" r="1.5"/>
  <circle cx="40.5" cy="11.5" r="1.5"/>
  <circle cx="40.5" cy="16.5" r="1.5"/>
  <circle cx="40.5" cy="21.5" r="1.5"/>
  <circle cx="40.5" cy="26.5" r="1.5"/>
  <circle cx="40.5" cy="31.5" r="1.5"/>
  <circle cx="40.5" cy="36.5" r="1.5"/>
  <circle cx="40.5" cy="40.5" r="1.5"/>
  <circle cx="36.5" cy="40.5" r="1.5"/>
  <circle cx="31.5" cy="40.5" r="1.5"/>
  <circle cx="21.5" cy="40.5" r="1.5"/>
  <circle cx="16.5" cy="40.5" r="1.5"/>
  <circle cx="7.5" cy="40.5" r="1.5"/>
  <circle cx="7.5" cy="36.5" r="1.5"/>
  <circle cx="7.5" cy="31.5" r="1.5"/>
  <circle cx="7.5" cy="26.5" r="1.5"/>
  <circle cx="7.5" cy="21.5" r="1.5"/>
  <circle cx="7.5" cy="16.5" r="1.5"/>
  <circle cx="7.5" cy="11.5" r="1.5"/>
  <circle cx="16.5" cy="7.5" r="1.5"/>
  <circle cx="21.5" cy="7.5" r="1.5"/>
  <circle cx="26.5" cy="7.5" r="1.5"/>
  <circle cx="31.5" cy="7.5" r="1.5"/>
  <circle cx="36.5" cy="7.5" r="1.5"/>
  <circle cx="40.5" cy="7.5" r="1.5"/>
 </g>
 <g style="fill:#ffdc65">
  <circle cx="11.5" cy="11.5" r="1.5"/>
  <circle cx="16.5" cy="11.5" r="1.5"/>
  <circle cx="21.5" cy="11.5" r="1.5"/>
  <circle cx="11.5" cy="16.5" r="1.5"/>
  <circle cx="11.5" cy="21.5" r="1.5"/>
  <circle cx="26.5" cy="11.5" r="1.5"/>
  <circle cx="31.5" cy="11.5" r="1.5"/>
  <circle cx="36.5" cy="11.5" r="1.5"/>
  <circle cx="36.5" cy="16.5" r="1.5"/>
  <circle cx="36.5" cy="21.5" r="1.5"/>
  <circle cx="36.5" cy="26.5" r="1.5"/>
  <circle cx="36.5" cy="36.5" r="1.5"/>
  <circle cx="31.5" cy="36.5" r="1.5"/>
  <circle cx="26.5" cy="36.5" r="1.5"/>
  <circle cx="26.5" cy="40.5" r="1.5"/>
  <circle cx="21.5" cy="36.5" r="1.5"/>
  <circle cx="16.5" cy="36.5" r="1.5"/>
  <circle cx="11.5" cy="31.5" r="1.5"/>
  <circle cx="11.5" cy="36.5" r="1.5"/>
  <circle cx="11.5" cy="26.5" r="1.5"/>
  <circle cx="36.5" cy="31.5" r="1.5"/>
  <circle cx="40.5" cy="11.5" r="1.5"/>
  <circle cx="40.5" cy="16.5" r="1.5"/>
  <circle cx="40.5" cy="21.5" r="1.5"/>
  <circle cx="40.5" cy="26.5" r="1.5"/>
  <circle cx="40.5" cy="31.5" r="1.5"/>
  <circle cx="40.5" cy="36.5" r="1.5"/>
  <circle cx="40.5" cy="40.5" r="1.5"/>
  <circle cx="36.5" cy="40.5" r="1.5"/>
  <circle cx="31.5" cy="40.5" r="1.5"/>
  <circle cx="21.5" cy="40.5" r="1.5"/>
  <circle cx="16.5" cy="40.5" r="1.5"/>
  <circle cx="7.5" cy="40.5" r="1.5"/>
  <circle cx="7.5" cy="36.5" r="1.5"/>
  <circle cx="7.5" cy="31.5" r="1.5"/>
  <circle cx="7.5" cy="26.5" r="1.5"/>
  <circle cx="7.5" cy="21.5" r="1.5"/>
  <circle cx="7.5" cy="16.5" r="1.5"/>
  <circle cx="7.5" cy="11.5" r="1.5"/>
  <circle cx="16.5" cy="7.5" r="1.5"/>
  <circle cx="21.5" cy="7.5" r="1.5"/>
  <circle cx="26.5" cy="7.5" r="1.5"/>
  <circle cx="31.5" cy="7.5" r="1.5"/>
  <circle cx="36.5" cy="7.5" r="1.5"/>
  <circle cx="40.5" cy="7.5" r="1.5"/>
 </g>
 <path style="opacity:0.1;fill:#f4f4f7" d="M 20 16 C 17.784 16 16 17.784 16 20 L 16 21 C 16 18.784 17.784 17 20 17 L 28 17 C 30.216 17 32 18.784 32 21 L 32 20 C 32 17.784 30.216 16 28 16 L 20 16 z"/>
 <path style="opacity:0.1;fill:#f4f4f7" d="M 6 4 C 4.892 4 4 4.892 4 6 L 4 7 C 4 5.892 4.892 5 6 5 L 42 5 C 43.108 5 44 5.892 44 7 L 44 6 C 44 4.892 43.108 4 42 4 L 6 4 z"/>
</svg>
